X: 0
T: Jessica's
C: Mick Hanly
M: 2/4
L: 1/8
K: Amaj
|:"A pedal (A)"ef/e/ ce|fe "A/C#"Bc|"D"A>B c/B/A|"E"ec B2|
"A"ef/e/ ce|fe "A/F#m"Bc|"A"A>B c/B/A|"E"FA E2:|
|:"D"F>B AF|"E"cB "A"A2|"F#m"ef/e/ ce|ag "D"f2|
"A"ef/e/ ce|fe "E"Bc|"D/E"A>B c/B/A|1,2 "E"FA E2:| "Very last time only-SLOW"cea2|]